resources/icons/svg_modifier.svg

<svg xmlns="http://www.w3.org/2000/svg" viewBox="0 0 16 16" width="16px" height="16px">
<path fill="#ed6b21" d="M 3.5 9 C 1.5741139 9 0 10.574114 0 12.5 C 0 14.425886 1.5741139 16 3.5 16 C 5.4258861 16 7 14.425886 7 12.5 C 7 10.574114 5.4258861 9 3.5 9 z M 3.5 10.199219 C 4.7773592 10.199219 5.8007813 11.222641 5.8007812 12.5 C 5.8007812 12.667974 5.7816922 12.830839 5.7480469 12.988281 L 3.0117188 10.251953 C 3.1691607 10.218308 3.3320257 10.199219 3.5 10.199219 z M 2.4863281 10.433594 L 5.5664062 13.513672 C 5.3371871 13.983352 4.9544913 14.362231 4.4804688 14.583984 L 1.4160156 11.521484 C 1.6376653 11.046724 2.0161177 10.663072 2.4863281 10.433594 z M 1.2421875 12.054688 L 3.9472656 14.757812 C 3.8024888 14.786013 3.6534389 14.800781 3.5 14.800781 C 2.2226408 14.800781 1.1992188 13.777359 1.1992188 12.5 C 1.1992188 12.347226 1.2142247 12.198881 1.2421875 12.054688 z "/>
<path fill="#808080" d="M 6,0 C 4,0 3,1 3,3 V 8 H 4 V 3 C 4,1.7 4.7,1 6,1 h 7 c 1.3,0 2,0.7 2,2 h 1 C 16,1 15,0 13,0 Z M 6,4 5,5 V 6 L 6,7 H 7 V 8 H 5 V 9 H 7 L 8,8 V 7 L 7,6 H 6 V 5 H 8 V 4 Z m 3,0 v 4 h 1 V 4 Z m 1,4 v 1 h 1 V 8 Z m 1,0 h 1 V 4 H 11 Z M 14.5,4 C 13.5,4 13,4.6 13,5.5 v 2 C 13,8.4 13.7,9 14.5,9 H 16 V 7 H 15 V 8 H 14.5 C 14.3,8 14,7.8 14,7.5 v -2 C 14,5 14.3,5 14.5,5 H 16 V 4 Z m 0.5,6 c 0,1.3 -0.7,2 -2,2 H 8 v 1 h 5 c 2,0 3,-1 3,-3 z" />
</svg>

<?xml version="1.0" encoding="utf-8"?>
<!-- Generator: Adobe Illustrator 25.0.0, SVG Export Plug-In . SVG Version: 6.00 Build 0)  -->
<svg version="1.1" id="图层_1" xmlns="http://www.w3.org/2000/svg" xmlns:xlink="http://www.w3.org/1999/xlink" x="0px" y="0px"
	 width="16px" height="16px" viewBox="0 0 16 16" enable-background="new 0 0 16 16" xml:space="preserve">
<path fill="#4479FB" d="M3.5,9C1.6,9,0,10.6,0,12.5S1.6,16,3.5,16S7,14.4,7,12.5S5.4,9,3.5,9z M3.5,10.2c1.3,0,2.3,1,2.3,2.3
	c0,0.2,0,0.3-0.1,0.5L3,10.3C3.2,10.2,3.3,10.2,3.5,10.2z M2.5,10.4l3.1,3.1C5.3,14,5,14.4,4.5,14.6l-3.1-3.1
	C1.6,11,2,10.7,2.5,10.4z M1.2,12.1l2.7,2.7c-0.1,0-0.3,0-0.4,0c-1.3,0-2.3-1-2.3-2.3C1.2,12.3,1.2,12.2,1.2,12.1z"/>
<path fill="#808080" d="M6,0C4,0,3,1,3,3v5h1V3c0-1.3,0.7-2,2-2h7c1.3,0,2,0.7,2,2h1c0-2-1-3-3-3H6z M6,4L5,5v1l1,1h1v1H5v1h2l1-1V7
	L7,6H6V5h2V4H6z M9,4v4h1V4H9z M10,8v1h1V8H10z M11,8h1V4h-1V8z M14.5,4c-1,0-1.5,0.6-1.5,1.5v2C13,8.4,13.7,9,14.5,9H16V7h-1v1
	h-0.5C14.3,8,14,7.8,14,7.5v-2C14,5,14.3,5,14.5,5H16V4H14.5z M15,10c0,1.3-0.7,2-2,2H8v1h5c2,0,3-1,3-3H15z"/>
</svg>
